public/cmn-logo.svg

<svg width="85" height="40" viewBox="0 0 85 40" fill="none" xmlns="http://www.w3.org/2000/svg">
<path d="M5.56526 5.79072C2.11361 9.33738 0 14.2315 0 19.5838C0 24.9346 2.11361 29.8299 5.56648 33.3754C8.9612 36.8804 13.7236 39.1051 18.97 39.1632L18.9725 39.1645H19.1974C24.5215 39.1632 29.3571 36.9232 32.8015 33.3741C36.2495 29.8299 38.3671 24.9346 38.3667 19.5838V14.1697C38.372 11.0735 40.8744 8.60122 43.9198 8.59516C46.9623 8.60284 49.4635 11.0735 49.4684 14.1697V25.695C49.4684 33.5018 55.8043 39.8578 63.6687 39.8638H64.9485V31.2731L63.6723 31.2707C60.6262 31.2643 58.1937 28.7919 58.1872 25.6937V14.1697C58.1921 11.0735 60.692 8.60122 63.7411 8.59516C66.7823 8.60122 69.2811 11.0735 69.2888 14.1697V25.695C69.2888 33.503 75.6256 39.8578 83.4863 39.8638H84.7674V31.2731L83.4899 31.2707C80.4462 31.2643 77.9438 28.7919 77.9385 25.6937V14.1697C77.9385 6.36042 71.6005 0.00809162 63.7398 0.00162697C59.875 0.00405121 56.3835 1.54466 53.8266 4.03193C51.2709 1.54466 47.7794 0.00405121 43.9169 0.00162697C36.6561 0.00809162 30.5862 5.42466 29.7146 12.4008V19.5838C29.7142 22.6748 28.5071 25.4182 26.579 27.4057C24.637 29.3891 22.0622 30.5649 19.1811 30.5709C16.3033 30.5649 13.7297 29.3891 11.7865 27.4045C9.86122 25.4182 8.65373 22.6748 8.65251 19.5826C8.65373 16.4889 9.86122 13.7491 11.7906 11.7604C13.7297 9.77456 16.3033 8.60122 19.1848 8.59516C21.1699 8.5988 22.9935 9.15678 24.5837 10.1495L26.0718 11.0812L26.5054 9.3891C26.9869 7.51678 27.7686 5.75435 28.7878 4.16203L29.5174 3.02425L28.3314 2.3689C25.6297 0.871526 22.5185 0.00809162 19.2279 0.00162697C19.2112 0.000414848 19.195 0.000414848 19.1771 0.000414848C13.8493 0.000414848 9.00837 2.23759 5.56526 5.79072Z" fill="#B35759"/>
</svg>

<?xml version="1.0" encoding="UTF-8" standalone="no"?><!DOCTYPE svg PUBLIC "-//W3C//DTD SVG 1.1//EN" "http://www.w3.org/Graphics/SVG/1.1/DTD/svg11.dtd"><svg width="100%" height="100%" viewBox="0 0 85 40" version="1.1" xmlns="http://www.w3.org/2000/svg" xmlns:xlink="http://www.w3.org/1999/xlink" xml:space="preserve" xmlns:serif="http://www.serif.com/" style="fill-rule:evenodd;clip-rule:evenodd;stroke-linejoin:round;stroke-miterlimit:2;"><path d="M5.565,5.791c-3.452,3.547 -5.565,8.441 -5.565,13.793c0,5.351 2.114,10.246 5.566,13.792c3.395,3.505 8.157,5.73 13.404,5.788l0.003,0.001l0.225,0c5.324,-0.001 10.16,-2.241 13.604,-5.79c3.448,-3.544 5.566,-8.439 5.565,-13.79l0,-5.414c0.005,-3.096 2.508,-5.568 5.553,-5.575c3.042,0.008 5.544,2.478 5.549,5.575l0,11.525c0,7.807 6.336,14.163 14.2,14.169l1.28,0l0,-8.591l-1.276,-0.002c-3.046,-0.006 -5.479,-2.479 -5.485,-5.577l0,-11.524c0.005,-3.096 2.505,-5.568 5.554,-5.575c3.041,0.006 5.54,2.478 5.548,5.575l0,11.525c0,7.808 6.337,14.163 14.198,14.169l1.281,0l0,-8.591l-1.277,-0.002c-3.044,-0.006 -5.546,-2.479 -5.551,-5.577l0,-11.524c0,-7.809 -6.338,-14.162 -14.199,-14.168c-3.865,0.002 -7.356,1.543 -9.913,4.03c-2.556,-2.487 -6.047,-4.028 -9.91,-4.03c-7.261,0.006 -13.331,5.423 -14.202,12.399l0,7.183c-0,3.091 -1.207,5.834 -3.136,7.822c-1.942,1.983 -4.517,3.159 -7.398,3.165c-2.878,-0.006 -5.451,-1.182 -7.395,-3.166c-1.925,-1.986 -3.133,-4.73 -3.134,-7.822c0.001,-3.094 1.209,-5.833 3.138,-7.822c1.939,-1.986 4.513,-3.159 7.394,-3.165c1.985,0.004 3.809,0.562 5.399,1.554l1.488,0.932l0.434,-1.692c0.481,-1.872 1.263,-3.635 2.282,-5.227l0.73,-1.138l-1.186,-0.655c-2.702,-1.497 -5.813,-2.361 -9.103,-2.367c-0.017,-0.001 -0.033,-0.001 -0.051,-0.001c-5.328,0 -10.169,2.237 -13.612,5.79Z" style="fill:#bf9983;fill-rule:nonzero;"/></svg>
